_site/images/homepage/information-escrow.svg

<svg fill="none" height="80" viewBox="0 0 80 80" width="80" xmlns="http://www.w3.org/2000/svg"><rect fill="#00b6ab" height="80" rx="25" width="80"/><path clip-rule="evenodd" d="m56.2237 33.2731c.0578.1744.0972.3545.1176.5373v.1194 19.8997c0 3.2971-2.631 5.9699-5.8765 5.9699h-19.5883c-3.2455 0-5.8765-2.6728-5.8765-5.9699v-27.8596c0-3.2971 2.631-5.9699 5.8765-5.9699h11.8509c.2277.0285.4474.103.6464.2189.0585-.0084.1178-.0084.1763 0 .2014.0957.3866.2233.5485.3781l11.753 11.9398c.1523.1645.278.3526.3721.5572zm-6.561-1.3339-5.0733-5.154v3.164c0 1.099.877 1.99 1.9588 1.99zm2.764 21.8908c0 1.099-.877 1.99-1.9588 1.99h-19.5883c-1.0818 0-1.9588-.891-1.9588-1.99v-27.8596c0-1.099.877-1.9899 1.9588-1.9899h9.7942v5.9699c0 3.2971 2.6309 5.9699 5.8764 5.9699h5.8765zm-13.7115-6.7882 6.4445-6.5669c.7681-.7803 2.0135-.7803 2.7816 0s.7681 2.0454 0 2.8257l-7.8353 7.9599c-.3678.3767-.8685.5886-1.3908.5886s-1.023-.2119-1.3908-.5886l-3.9176-3.9799c-.7681-.7803-.7681-2.0455 0-2.8258s2.0134-.7803 2.7815 0z" fill="#fff" fill-rule="evenodd"/></svg>

<svg width="80" height="80" viewBox="0 0 80 80" fill="none" xmlns="http://www.w3.org/2000/svg">
<rect width="80" height="80" rx="25" fill="#00B6AB"/>
<path fill-rule="evenodd" clip-rule="evenodd" d="M56.2237 33.2731C56.2815 33.4475 56.3209 33.6276 56.3413 33.8104V33.9298V53.8295C56.3413 57.1266 53.7103 59.7994 50.4648 59.7994H30.8765C27.631 59.7994 25 57.1266 25 53.8295V25.9699C25 22.6728 27.631 20 30.8765 20H42.7274C42.9551 20.0285 43.1748 20.103 43.3738 20.2189C43.4323 20.2105 43.4916 20.2105 43.5501 20.2189C43.7515 20.3146 43.9367 20.4422 44.0986 20.597L55.8516 32.5368C56.0039 32.7013 56.1296 32.8894 56.2237 33.094V33.2731ZM49.6627 31.9392L44.5894 26.7852V29.9492C44.5894 31.0482 45.4664 31.9392 46.5482 31.9392H49.6627ZM52.4267 53.83C52.4267 54.929 51.5497 55.82 50.4679 55.82H30.8796C29.7978 55.82 28.9208 54.929 28.9208 53.83V25.9704C28.9208 24.8714 29.7978 23.9805 30.8796 23.9805H40.6738V29.9504C40.6738 33.2475 43.3047 35.9203 46.5502 35.9203H52.4267V53.83ZM38.7152 47.0418L45.1597 40.4749C45.9278 39.6946 47.1732 39.6946 47.9413 40.4749C48.7094 41.2552 48.7094 42.5203 47.9413 43.3006L40.106 51.2605C39.7382 51.6372 39.2375 51.8491 38.7152 51.8491C38.1929 51.8491 37.6922 51.6372 37.3244 51.2605L33.4068 47.2806C32.6387 46.5003 32.6387 45.2351 33.4068 44.4548C34.1749 43.6745 35.4202 43.6745 36.1883 44.4548L38.7152 47.0418Z" fill="white"/>
</svg>
